communes/5076.svg

<?xml version="1.0" encoding="UTF-8"?>
<svg version="1.0" viewBox="0 0 603 763" xmlns="http://www.w3.org/2000/svg" xmlns:cc="http://web.resource.org/cc/" xmlns:dc="http://purl.org/dc/elements/1.1/" xmlns:rdf="http://www.w3.org/1999/02/22-rdf-syntax-ns#" xmlns:xlink="http://www.w3.org/1999/xlink">
<metadata>
<rdf:RDF>
<cc:Work rdf:about="">
<dc:format>image/svg+xml</dc:format>
<dc:type rdf:resource="http://purl.org/dc/dcmitype/StillImage"/>
<dc:date>07-AUG-2006</dc:date>
<dc:creator>
<cc:Agent>
<dc:title>Jérôme BLUM (wagner51)</dc:title>
</cc:Agent>
</dc:creator>
<cc:license rdf:resource="http://creativecommons.org/licenses/GPL/2.0/"/>
<dc:coverage/>
<dc:description>Gabarit pour le Projet:Blasons de WIkipédia</dc:description>
<dc:subject>
<rdf:Bag>
<rdf:li>blason suisse modèle gabarit projet blasons</rdf:li>
</rdf:Bag>
</dc:subject>
<dc:language>fr</dc:language>
<dc:title>Gabrit d'un blason suisse</dc:title>
</cc:Work>
<cc:License rdf:about="http://creativecommons.org/licenses/GPL/2.0/">
<cc:permits rdf:resource="http://web.resource.org/cc/Reproduction"/>
<cc:permits rdf:resource="http://web.resource.org/cc/Distribution"/>
<cc:requires rdf:resource="http://web.resource.org/cc/Notice"/>
<cc:permits rdf:resource="http://web.resource.org/cc/DerivativeWorks"/>
<cc:requires rdf:resource="http://web.resource.org/cc/ShareAlike"/>
<cc:requires rdf:resource="http://web.resource.org/cc/SourceCode"/>
</cc:License>
</rdf:RDF>
</metadata>
<defs>
<radialGradient id="a" cx="858.04" cy="579.93" r="300" gradientTransform="matrix(1.215 1.5316e-24 1.4647e-23 1.2667 -839.19 -490.49)" gradientUnits="userSpaceOnUse">
<stop stop-color="#fff" stop-opacity=".31373" offset="0"/>
<stop stop-color="#fff" stop-opacity=".25098" offset=".19"/>
<stop stop-color="#6b6b6b" stop-opacity=".12549" offset=".6"/>
<stop stop-opacity=".12549" offset="1"/>
</radialGradient>
</defs>
<desc>Coat of Arms of Canton of Freiburg (Fribourg)</desc>
<g>
<path d="m1.5 1.5v458.87c0 166.31 134.31 301.13 300 301.13 165.69 0 300-134.82 300-301.13v-458.87h-600z" fill="#fcef3c"/>
<path d="m237.46 333.76s-5.725-12.404-4.135-31.807 8.271-37.531 17.175-36.578c8.906 0.954 10.179 12.404 11.132 20.674 0.955 8.27 5.407 22.266 5.726 31.489l0.318 7.633-21.312 17.812-8.904-9.223z" stroke="#fcef3c" stroke-linecap="round" stroke-linejoin="round" stroke-width="3"/>
<path d="m389.79 364.62c29.678 42.579 38.063 216.77 36.128 295.48 0 0-76.771 77.417-225.16 19.354 0 0 46.007-123.56 87.738-190.32 1.614-2.58 1.144-4.521-1.673-4.848-2.815-0.326-7.977 0.964-15.745 4.848-23.226 11.613-25.518-0.28-46.45 5.162-29.784 7.744-55.72 23.188-66.631 7.227-1.109-3.355 7.277-9.808 16.954-11.742 9.678-1.936 16.773-13.55 5.807-10.322-10.968 3.227-35.865 5.975-36.127 2.581 0 0-3.227-23.87 5.806-35.482 9.032-11.611 47.741-29.677 54.837-42.578 7.097-12.904 5.162-23.872 14.193-33.549 9.03-9.677 2.4-37.622 42.477-47.163 27.167-6.469 64.194-4.508 94.181 11.719 0 0 5.691-40.027 28.594-52.433 22.901-12.403 24.317 6.814 21.947 21.629-2.545 15.903 0 27.354-5.089 38.169-3.999 8.495-11.792 22.27-11.792 22.27z" stroke="#fcef3c" stroke-linecap="round" stroke-linejoin="round" stroke-width="3"/>
<path d="m298.96 325.42s5.932-78.425 9.557-94.242c3.626-15.816 15.488-7.578 20.101-4.283 4.691 3.351 12.984 7.039 4.943-8.238-6.591-12.522-33.611-19.771-47.781 3.953-14.168 23.726-17.793 101.49-17.793 101.49s14.828 13.181 30.973 1.318z" stroke="#fcef3c" stroke-linecap="round" stroke-linejoin="round" stroke-width="3"/>
<path d="m310.49 327.07s7.25-82.381 23.066-98.526 36.78-4.577 39.542 9.228c1.647 8.237-0.987 12.19-3.295 12.521s-2.636-9.886-8.237-9.556c-6.612 0.39-12.851 3.953-14.17 32.951-1.318 28.998-6.92 54.7-6.92 54.7s-13.838 12.522-29.986-1.318z" stroke="#fcef3c" stroke-linecap="round" stroke-linejoin="round" stroke-width="3"/>
<path d="m368.48 353.43s6.26-42.838 21.418-49.1c0 0 1.979 17.465-13.51 55.689 2e-3 1e-3 -4.613-1.647-7.908-6.589z" fill="#fcef3c" stroke="#000" stroke-linecap="round" stroke-linejoin="round" stroke-width="3"/>
<path d="m356.13 334.98s-0.602 5.289-0.461 9.752" fill="none" stroke="#fcef3c" stroke-linecap="round" stroke-linejoin="round" stroke-width="3"/>
<path d="m389.79 364.62s-1.618 1.878-2.455 2.296" fill="none" stroke="#fcef3c" stroke-linecap="round" stroke-linejoin="round" stroke-width="3"/>
<path d="m260.82 400.24s2.255-11.648 14.654-10.521c12.4 1.127 23.675-2.63 28.559-5.261" fill="none" stroke="#fcef3c" stroke-linecap="round" stroke-linejoin="round" stroke-width="3"/>
<path d="m286.03 389.95c-2.763 0.428-5.745 0.595-8.829 0.338-2.807 1.891-4.699 5.413-4.699 9.459 0 6.038 4.202 10.93 9.387 10.93 5.188 0 9.39-4.892 9.39-10.93-2e-3 -4.305-2.144-8.016-5.249-9.797z" fill="#fcef3c"/>
<path d="m351.42 439.05s-6.191 34.451-64.588 45.231" fill="none" stroke="#fcef3c" stroke-linecap="round" stroke-linejoin="round" stroke-width="3"/>
<polygon transform="translate(1.5,1.5)" points="169.5 146.33 212.97 98.191 149.54 111.77 129.59 50.052 109.64 111.77 46.211 98.191 89.688 146.33 46.211 194.47 109.64 180.89 129.59 242.61 149.54 180.89 212.97 194.47" fill="#e20909" stroke="#000" stroke-linecap="round" stroke-linejoin="round" stroke-width="2.75"/>
<polygon transform="translate(1.5,1.5)" points="387.03 194.47 450.46 180.89 470.41 242.61 490.36 180.89 553.79 194.47 510.31 146.33 553.79 98.191 490.36 111.77 470.41 50.052 450.46 111.77 387.03 98.191 430.51 146.33" fill="#e20909" stroke="#000" stroke-linecap="round" stroke-linejoin="round" stroke-width="2.75"/>
</g>
<g>
<path d="m1.5 1.5v458.87c0 166.31 134.31 301.13 300 301.13 165.69 0 300-134.82 300-301.13v-458.87h-600z" fill="url(#a)"/>
<path d="m1.5 1.5v458.87c0 166.31 134.31 301.13 300 301.13 165.69 0 300-134.82 300-301.13v-458.87h-600z" fill="none" stroke="#000" stroke-width="3"/>
</g>
</svg>

<?xml version="1.0" encoding="UTF-8" standalone="no"?>
<svg
   xmlns:i="http://ns.adobe.com/AdobeIllustrator/10.0/"
   xmlns:dc="http://purl.org/dc/elements/1.1/"
   xmlns:cc="http://web.resource.org/cc/"
   xmlns:rdf="http://www.w3.org/1999/02/22-rdf-syntax-ns#"
   xmlns:svg="http://www.w3.org/2000/svg"
   xmlns="http://www.w3.org/2000/svg"
   xmlns:xlink="http://www.w3.org/1999/xlink"
   xmlns:sodipodi="http://sodipodi.sourceforge.net/DTD/sodipodi-0.dtd"
   xmlns:inkscape="http://www.inkscape.org/namespaces/inkscape"
   height="763"
   width="603"
   version="1.0"
   id="svg20"
   sodipodi:version="0.32"
   inkscape:version="0.44"
   sodipodi:docname="BlasonVide-coat_of_arms.svg"
   sodipodi:docbase="C:\Documents and Settings\Steve\Bureau\Blasons Suisse pour Wikimedia (par Delta-9)\Communes\[TI]\District de la Leventine">
  <metadata
     id="metadata31">
    <rdf:RDF>
      <cc:Work
         rdf:about="">
        <dc:format>image/svg+xml</dc:format>
        <dc:type
           rdf:resource="http://purl.org/dc/dcmitype/StillImage" />
        <dc:date>07-AUG-2006</dc:date>
        <dc:creator>
          <cc:Agent>
            <dc:title>Jérôme BLUM (wagner51)</dc:title>
          </cc:Agent>
        </dc:creator>
        <cc:license
           rdf:resource="http://creativecommons.org/licenses/GPL/2.0/" />
        <dc:coverage />
        <dc:description>Gabarit pour le Projet:Blasons de WIkipédia</dc:description>
        <dc:subject>
          <rdf:Bag>
            <rdf:li>blason suisse modèle gabarit projet blasons</rdf:li>
          </rdf:Bag>
        </dc:subject>
        <dc:language>fr</dc:language>
        <dc:title>Gabrit d'un blason suisse</dc:title>
      </cc:Work>
      <cc:License
         rdf:about="http://creativecommons.org/licenses/GPL/2.0/">
        <cc:permits
           rdf:resource="http://web.resource.org/cc/Reproduction" />
        <cc:permits
           rdf:resource="http://web.resource.org/cc/Distribution" />
        <cc:requires
           rdf:resource="http://web.resource.org/cc/Notice" />
        <cc:permits
           rdf:resource="http://web.resource.org/cc/DerivativeWorks" />
        <cc:requires
           rdf:resource="http://web.resource.org/cc/ShareAlike" />
        <cc:requires
           rdf:resource="http://web.resource.org/cc/SourceCode" />
      </cc:License>
    </rdf:RDF>
  </metadata>
  <defs
     id="defs29"><linearGradient
   id="linearGradient2893">
  <stop
     style="stop-color:#ffffff;stop-opacity:0.3137255;"
     offset="0"
     id="stop2895" />
  <stop
     id="stop2897"
     offset="0.19"
     style="stop-color:#ffffff;stop-opacity:0.25098041;" />
  <stop
     style="stop-color:#6b6b6b;stop-opacity:0.1254902;"
     offset="0.60000002"
     id="stop2901" />
  <stop
     style="stop-color:#000000;stop-opacity:0.1254902;"
     offset="1"
     id="stop2899" />
</linearGradient>
<linearGradient
   id="linearGradient2955">
  <stop
     style="stop-color:white;stop-opacity:0;"
     offset="0"
     id="stop2965" />
  <stop
     style="stop-color:black;stop-opacity:0.64583331;"
     offset="1"
     id="stop2959" />
</linearGradient>
<radialGradient
   inkscape:collect="always"
   xlink:href="#linearGradient2893"
   id="radialGradient3236"
   gradientUnits="userSpaceOnUse"
   gradientTransform="matrix(1.215027,1.531577e-24,1.464684e-23,1.266667,-839.1924,-490.4894)"
   cx="858.04236"
   cy="579.93323"
   fx="858.04236"
   fy="579.93323"
   r="300" />

			<foreignObject
   requiredExtensions="http://ns.adobe.com/AdobeIllustrator/10.0/"
   x="0"
   y="0"
   width="1"
   height="1"
   id="foreignObject1961">
				<i:pgfRef
   xlink:href="#adobe_illustrator_pgf">
				</i:pgfRef>

			</foreignObject>

			
		
				
			
					
					
					
					
					
					
					
					
					
					
					
					
						
					
						
				</defs>
  <sodipodi:namedview
     inkscape:window-height="691"
     inkscape:window-width="939"
     inkscape:pageshadow="2"
     inkscape:pageopacity="0.0"
     guidetolerance="10.0"
     gridtolerance="10.0"
     objecttolerance="10.0"
     borderopacity="1.0"
     bordercolor="#666666"
     pagecolor="#ffffff"
     id="base"
     inkscape:zoom="0.4300232"
     inkscape:cx="159.98738"
     inkscape:cy="336.24121"
     inkscape:window-x="144"
     inkscape:window-y="50"
     inkscape:current-layer="layer2"
     showgrid="false"
     showguides="true"
     inkscape:guide-bbox="true" />
  <desc
     id="desc22">Coat of Arms of Canton of Freiburg (Fribourg)</desc>
  <g
     inkscape:groupmode="layer"
     id="layer1"
     inkscape:label="Fond écu"
     style="opacity:1"
     sodipodi:insensitive="true">
    <path
       style="opacity:1;fill:#fcef3c;stroke:none"
       id="path2017"
       d="M 1.5,1.5 L 1.5,460.368 C 1.5,626.679 135.814,761.5 301.5,761.5 C 467.187,761.5 601.5,626.679 601.5,460.368 L 601.5,1.5 L 1.5,1.5 z " />
  </g>
  <g
     inkscape:groupmode="layer"
     id="layer2"
     inkscape:label="Meubles"
     style="opacity:1"
     sodipodi:insensitive="true">
    <path
       style="stroke:#fcef3c;stroke-width:3;stroke-linecap:round;stroke-linejoin:round"
       id="path1985"
       d="M 237.462,333.757 C 237.462,333.757 231.737,321.353 233.327,301.95 C 234.917,282.547 241.598,264.419 250.502,265.372 C 259.408,266.326 260.681,277.776 261.634,286.046 C 262.589,294.316 267.041,308.312 267.36,317.535 L 267.678,325.168 L 246.366,342.98 L 237.462,333.757 z " />
    <path
       style="stroke:#fcef3c;stroke-width:3;stroke-linecap:round;stroke-linejoin:round"
       id="path1987"
       d="M 389.794,364.618 C 419.472,407.197 427.857,581.387 425.922,660.094 C 425.922,660.094 349.151,737.511 200.767,679.448 C 200.767,679.448 246.774,555.89 288.505,489.13 C 290.119,486.55 289.649,484.609 286.832,484.282 C 284.017,483.956 278.855,485.246 271.087,489.13 C 247.861,500.743 245.569,488.85 224.637,494.292 C 194.853,502.036 168.917,517.48 158.006,501.519 C 156.897,498.164 165.283,491.711 174.96,489.777 C 184.638,487.841 191.733,476.227 180.767,479.455 C 169.799,482.682 144.902,485.43 144.64,482.036 C 144.64,482.036 141.413,458.166 150.446,446.554 C 159.478,434.943 198.187,416.877 205.283,403.976 C 212.38,391.072 210.445,380.104 219.476,370.427 C 228.506,360.75 221.876,332.805 261.953,323.264 C 289.12,316.795 326.147,318.756 356.134,334.983 C 356.134,334.983 361.825,294.956 384.728,282.55 C 407.629,270.147 409.045,289.364 406.675,304.179 C 404.13,320.082 406.675,331.533 401.586,342.348 C 397.587,350.843 389.794,364.618 389.794,364.618 z " />
    <path
       style="stroke:#fcef3c;stroke-width:3;stroke-linecap:round;stroke-linejoin:round"
       id="path1989"
       d="M 298.957,325.419 C 298.957,325.419 304.889,246.994 308.514,231.177 C 312.14,215.361 324.002,223.599 328.615,226.894 C 333.306,230.245 341.599,233.933 333.558,218.656 C 326.967,206.134 299.947,198.885 285.777,222.609 C 271.609,246.335 267.984,324.101 267.984,324.101 C 267.984,324.101 282.812,337.282 298.957,325.419 z " />
    <path
       style="stroke:#fcef3c;stroke-width:3;stroke-linecap:round;stroke-linejoin:round"
       id="path1991"
       d="M 310.49,327.067 C 310.49,327.067 317.74,244.686 333.556,228.541 C 349.372,212.396 370.336,223.964 373.098,237.769 C 374.745,246.006 372.111,249.959 369.803,250.29 C 367.495,250.621 367.167,240.404 361.566,240.734 C 354.954,241.124 348.715,244.687 347.396,273.685 C 346.078,302.683 340.476,328.385 340.476,328.385 C 340.476,328.385 326.638,340.907 310.49,327.067 z " />
    <path
       style="fill:#fcef3c;stroke:black;stroke-width:3;stroke-linecap:round;stroke-linejoin:round"
       id="path1993"
       d="M 368.485,353.429 C 368.485,353.429 374.745,310.591 389.903,304.329 C 389.903,304.329 391.882,321.794 376.393,360.018 C 376.395,360.019 371.78,358.371 368.485,353.429 z " />
    <path
       style="fill:none;stroke:#fcef3c;stroke-width:3;stroke-linecap:round;stroke-linejoin:round"
       id="path1995"
       d="M 356.134,334.981 C 356.134,334.981 355.532,340.27 355.673,344.733" />
    <path
       style="fill:none;stroke:#fcef3c;stroke-width:3;stroke-linecap:round;stroke-linejoin:round"
       id="path1997"
       d="M 389.794,364.618 C 389.794,364.618 388.176,366.496 387.339,366.914" />
    <path
       style="fill:none;stroke:#fcef3c;stroke-width:3;stroke-linecap:round;stroke-linejoin:round"
       id="path1999"
       d="M 260.823,400.24 C 260.823,400.24 263.078,388.592 275.477,389.719 C 287.877,390.846 299.152,387.089 304.036,384.458" />
    <path
       style="fill:#fcef3c"
       id="path2001"
       d="M 286.027,389.949 C 283.264,390.377 280.282,390.544 277.198,390.287 C 274.391,392.178 272.499,395.7 272.499,399.746 C 272.499,405.784 276.701,410.676 281.886,410.676 C 287.074,410.676 291.276,405.784 291.276,399.746 C 291.274,395.441 289.132,391.73 286.027,389.949 z " />
    <path
       style="fill:none;stroke:#fcef3c;stroke-width:3;stroke-linecap:round;stroke-linejoin:round"
       id="path2003"
       d="M 351.42,439.051 C 351.42,439.051 345.229,473.502 286.832,484.282" />
    <polygon
       style="fill:#e20909;stroke:black;stroke-width:2.75;stroke-linecap:round;stroke-linejoin:round"
       id="polygon1963"
       points="169.495,146.331 212.973,98.191 149.543,111.773 129.59,50.052 109.641,111.773 46.211,98.191 89.688,146.332 46.211,194.472 109.64,180.89 129.59,242.612 149.543,180.89 212.973,194.472 169.495,146.331 "
       transform="translate(1.5,1.5)" />
    <polygon
       style="fill:#e20909;stroke:black;stroke-width:2.75;stroke-linecap:round;stroke-linejoin:round"
       id="polygon1963_4_"
       points="387.027,194.472 450.456,180.89 470.409,242.612 490.361,180.89 553.789,194.472 510.313,146.332 553.789,98.191 490.36,111.773 470.409,50.052 450.456,111.773 387.027,98.191 430.506,146.331 387.027,194.472 "
       transform="translate(1.5,1.5)" />
  </g>
  <g
     inkscape:groupmode="layer"
     id="layer3"
     inkscape:label="Reflet final"
     style="display:inline"
     sodipodi:insensitive="true">
    <path
       style="fill:url(#radialGradient3236);fill-opacity:1"
       d="M 1.5,1.5 L 1.5,460.3679 C 1.5,626.67854 135.81454,761.5 301.49993,761.5 C 467.1854,761.5 601.5,626.67854 601.5,460.3679 L 601.5,1.5 L 1.5,1.5 z "
       id="path2346" />
  </g>
  <g
     inkscape:groupmode="layer"
     id="layer4"
     inkscape:label="Contour final"
     style="display:inline"
     sodipodi:insensitive="true">
    <path
       style="fill:none;fill-opacity:1;stroke:#000000;stroke-width:3;stroke-miterlimit:4;stroke-dasharray:none;stroke-opacity:1"
       d="M 1.5,1.5 L 1.5,460.36794 C 1.5,626.67854 135.81454,761.5 301.49993,761.5 C 467.1854,761.5 601.5,626.67854 601.5,460.36794 L 601.5,1.5 L 1.5,1.5 z "
       id="path3239" />
  </g>
</svg>
